T: Maude Miller
M: 4/4
L: 1/8
K: Dmix
|: dcAG FADA| E2 cE dEcE| dcAG FADF| Add^c dfec:|K:D|fdcd efge| afge afge| fdcd efge|afge fd d2|fdef efge| afge a2 fg |afge fdec| Addc dfec|
